Improvs/dist/images/main_page/sound_turn.svg

<svg width="34" height="34" viewBox="0 0 34 34" fill="none" xmlns="http://www.w3.org/2000/svg">
<g clip-path="url(#clip0_1584_56463)">
<path d="M12.5921 22.667H7.08268C6.70696 22.667 6.34662 22.5178 6.08095 22.2521C5.81527 21.9864 5.66602 21.6261 5.66602 21.2504V12.7504C5.66602 12.3746 5.81527 12.0143 6.08095 11.7486C6.34662 11.4829 6.70696 11.3337 7.08268 11.3337H12.5921L20.0919 5.19669C20.1957 5.11161 20.3215 5.05777 20.4547 5.04141C20.5879 5.02506 20.723 5.04688 20.8442 5.10432C20.9655 5.16176 21.068 5.25247 21.1397 5.36589C21.2114 5.4793 21.2494 5.61075 21.2493 5.74494V28.2558C21.2494 28.39 21.2114 28.5214 21.1397 28.6348C21.068 28.7482 20.9655 28.8389 20.8442 28.8964C20.723 28.9538 20.5879 28.9757 20.4547 28.9593C20.3215 28.9429 20.1957 28.8891 20.0919 28.804L12.5935 22.667H12.5921ZM26.7219 23.5043L24.7074 21.4898C25.3952 20.9609 25.9521 20.281 26.335 19.5025C26.718 18.7241 26.9168 17.8679 26.916 17.0004C26.916 14.9745 25.8535 13.1966 24.2527 12.195L26.2913 10.1564C27.3643 10.9458 28.2365 11.9766 28.8373 13.1656C29.438 14.3546 29.7505 15.6682 29.7493 17.0004C29.7493 19.6099 28.5735 21.9445 26.7219 23.5043Z" fill="white"/>
</g>
<defs>
<clipPath id="clip0_1584_56463">
<rect width="34" height="34" fill="white"/>
</clipPath>
</defs>
</svg>

<svg width="34" height="34" fill="none" xmlns="http://www.w3.org/2000/svg"><g clip-path="url(#clip0_1584_56463)"><path d="M12.592 22.667h-5.51a1.417 1.417 0 01-1.416-1.417v-8.5a1.417 1.417 0 011.417-1.416h5.51l7.499-6.137a.709.709 0 011.157.548v22.51a.708.708 0 01-1.157.549l-7.498-6.137h-.002zm14.13.837l-2.015-2.014A5.656 5.656 0 0026.916 17a5.66 5.66 0 00-2.663-4.805l2.038-2.039A8.488 8.488 0 0129.75 17a8.481 8.481 0 01-3.027 6.504z" fill="#fff"/></g><defs><clipPath id="clip0_1584_56463"><path fill="#fff" d="M0 0h34v34H0z"/></clipPath></defs></svg>
